documentation/public/assets/images/date-input.svg

<svg width="182" height="40" viewBox="0 0 182 40" fill="none" xmlns="http://www.w3.org/2000/svg">
<rect x="0.5" y="0.5" width="181" height="39" rx="3.5" fill="white"/>
<path d="M17.2955 14.3636V26H15.8864V15.8409H15.8182L12.9773 17.7273V16.2955L15.8864 14.3636H17.2955ZM24.5739 26.1591C23.8239 26.1591 23.1553 26.0303 22.5682 25.7727C21.9848 25.5152 21.5208 25.1572 21.1761 24.6989C20.8352 24.2367 20.6496 23.7008 20.6193 23.0909H22.0511C22.0814 23.4659 22.2102 23.7898 22.4375 24.0625C22.6648 24.3314 22.9621 24.5398 23.3295 24.6875C23.697 24.8352 24.1042 24.9091 24.5511 24.9091C25.0511 24.9091 25.4943 24.822 25.8807 24.6477C26.267 24.4735 26.5701 24.2311 26.7898 23.9205C27.0095 23.6098 27.1193 23.25 27.1193 22.8409C27.1193 22.4129 27.0133 22.036 26.8011 21.7102C26.589 21.3807 26.2784 21.1231 25.8693 20.9375C25.4602 20.7519 24.9602 20.6591 24.3693 20.6591H23.4375V19.4091H24.3693C24.8314 19.4091 25.2367 19.3258 25.5852 19.1591C25.9375 18.9924 26.2121 18.7576 26.4091 18.4545C26.6098 18.1515 26.7102 17.7955 26.7102 17.3864C26.7102 16.9924 26.6231 16.6496 26.4489 16.358C26.2746 16.0663 26.0284 15.839 25.7102 15.6761C25.3958 15.5133 25.0246 15.4318 24.5966 15.4318C24.1951 15.4318 23.8163 15.5057 23.4602 15.6534C23.108 15.7973 22.8201 16.0076 22.5966 16.2841C22.3731 16.5568 22.2519 16.8864 22.233 17.2727H20.8693C20.892 16.6629 21.0758 16.1288 21.4205 15.6705C21.7652 15.2083 22.2159 14.8485 22.7727 14.5909C23.3333 14.3333 23.9489 14.2045 24.6193 14.2045C25.339 14.2045 25.9564 14.3504 26.4716 14.642C26.9867 14.9299 27.3826 15.3106 27.6591 15.7841C27.9356 16.2576 28.0739 16.7689 28.0739 17.3182C28.0739 17.9735 27.9015 18.5322 27.5568 18.9943C27.2159 19.4564 26.7519 19.7765 26.1648 19.9545V20.0455C26.8996 20.1667 27.4735 20.4792 27.8864 20.983C28.2992 21.483 28.5057 22.1023 28.5057 22.8409C28.5057 23.4735 28.3333 24.0417 27.9886 24.5455C27.6477 25.0455 27.1818 25.4394 26.5909 25.7273C26 26.0152 25.3277 26.1591 24.5739 26.1591ZM34.9659 13.8182L31.2159 27.75H29.9886L33.7386 13.8182H34.9659ZM40.3281 26.1591C39.4721 26.1591 38.7429 25.9261 38.1406 25.4602C37.5384 24.9905 37.0781 24.3106 36.7599 23.4205C36.4418 22.5265 36.2827 21.447 36.2827 20.1818C36.2827 18.9242 36.4418 17.8504 36.7599 16.9602C37.0819 16.0663 37.544 15.3845 38.1463 14.9148C38.7524 14.4413 39.4796 14.2045 40.3281 14.2045C41.1766 14.2045 41.902 14.4413 42.5043 14.9148C43.1103 15.3845 43.5724 16.0663 43.8906 16.9602C44.2126 17.8504 44.3736 18.9242 44.3736 20.1818C44.3736 21.447 44.2145 22.5265 43.8963 23.4205C43.5781 24.3106 43.1179 24.9905 42.5156 25.4602C41.9134 25.9261 41.1842 26.1591 40.3281 26.1591ZM40.3281 24.9091C41.1766 24.9091 41.8357 24.5 42.3054 23.6818C42.7751 22.8636 43.0099 21.697 43.0099 20.1818C43.0099 19.1742 42.902 18.3163 42.6861 17.608C42.474 16.8996 42.1671 16.3598 41.7656 15.9886C41.3679 15.6174 40.8887 15.4318 40.3281 15.4318C39.4872 15.4318 38.83 15.8466 38.3565 16.6761C37.883 17.5019 37.6463 18.6705 37.6463 20.1818C37.6463 21.1894 37.7524 22.0455 37.9645 22.75C38.1766 23.4545 38.4815 23.9905 38.8793 24.358C39.2808 24.7254 39.7637 24.9091 40.3281 24.9091ZM50.2599 26.1591C49.4796 26.1591 48.7902 26.0208 48.1918 25.7443C47.5971 25.464 47.133 25.0795 46.7997 24.5909C46.4664 24.0985 46.3016 23.5379 46.3054 22.9091C46.3016 22.4167 46.3982 21.9621 46.5952 21.5455C46.7921 21.125 47.0611 20.7746 47.402 20.4943C47.7467 20.2102 48.1312 20.0303 48.5554 19.9545V19.8864C47.9986 19.7424 47.5554 19.4299 47.2259 18.9489C46.8963 18.464 46.7334 17.9129 46.7372 17.2955C46.7334 16.7045 46.883 16.1761 47.1861 15.7102C47.4891 15.2443 47.9058 14.8769 48.4361 14.608C48.9702 14.339 49.5781 14.2045 50.2599 14.2045C50.9342 14.2045 51.5365 14.339 52.0668 14.608C52.5971 14.8769 53.0137 15.2443 53.3168 15.7102C53.6236 16.1761 53.7789 16.7045 53.7827 17.2955C53.7789 17.9129 53.6103 18.464 53.277 18.9489C52.9474 19.4299 52.5099 19.7424 51.9645 19.8864V19.9545C52.3849 20.0303 52.7637 20.2102 53.1009 20.4943C53.438 20.7746 53.7069 21.125 53.9077 21.5455C54.1084 21.9621 54.2107 22.4167 54.2145 22.9091C54.2107 23.5379 54.0402 24.0985 53.7031 24.5909C53.3698 25.0795 52.9058 25.464 52.3111 25.7443C51.7202 26.0208 51.0365 26.1591 50.2599 26.1591ZM50.2599 24.9091C50.7865 24.9091 51.241 24.8239 51.6236 24.6534C52.0062 24.483 52.3016 24.2424 52.5099 23.9318C52.7183 23.6212 52.8243 23.2576 52.8281 22.8409C52.8243 22.4015 52.7107 22.0133 52.4872 21.6761C52.2637 21.339 51.9588 21.0739 51.5724 20.8807C51.1899 20.6875 50.7524 20.5909 50.2599 20.5909C49.7637 20.5909 49.3205 20.6875 48.9304 20.8807C48.544 21.0739 48.2391 21.339 48.0156 21.6761C47.7959 22.0133 47.688 22.4015 47.6918 22.8409C47.688 23.2576 47.7884 23.6212 47.9929 23.9318C48.2012 24.2424 48.4986 24.483 48.8849 24.6534C49.2713 24.8239 49.7296 24.9091 50.2599 24.9091ZM50.2599 19.3864C50.6766 19.3864 51.0459 19.303 51.3679 19.1364C51.6937 18.9697 51.9493 18.7367 52.1349 18.4375C52.3205 18.1383 52.4152 17.7879 52.419 17.3864C52.4152 16.9924 52.3224 16.6496 52.1406 16.358C51.9588 16.0625 51.7069 15.8352 51.3849 15.6761C51.063 15.5133 50.688 15.4318 50.2599 15.4318C49.8243 15.4318 49.4437 15.5133 49.1179 15.6761C48.7921 15.8352 48.5402 16.0625 48.3622 16.358C48.1842 16.6496 48.0971 16.9924 48.1009 17.3864C48.0971 17.7879 48.1861 18.1383 48.3679 18.4375C48.5535 18.7367 48.8092 18.9697 49.1349 19.1364C49.4607 19.303 49.8357 19.3864 50.2599 19.3864ZM60.5284 13.8182L56.7784 27.75H55.5511L59.3011 13.8182H60.5284ZM62.0952 26V24.9773L65.9361 20.7727C66.3868 20.2803 66.758 19.8523 67.0497 19.4886C67.3414 19.1212 67.5573 18.7765 67.6974 18.4545C67.8414 18.1288 67.9134 17.7879 67.9134 17.4318C67.9134 17.0227 67.8149 16.6686 67.6179 16.3693C67.4247 16.0701 67.1596 15.839 66.8224 15.6761C66.4853 15.5133 66.1065 15.4318 65.6861 15.4318C65.2391 15.4318 64.849 15.5246 64.5156 15.7102C64.1861 15.892 63.9304 16.1477 63.7486 16.4773C63.5705 16.8068 63.4815 17.1932 63.4815 17.6364H62.1406C62.1406 16.9545 62.2978 16.3561 62.6122 15.8409C62.9266 15.3258 63.3546 14.9242 63.8963 14.6364C64.4418 14.3485 65.0535 14.2045 65.7315 14.2045C66.4134 14.2045 67.0175 14.3485 67.544 14.6364C68.0705 14.9242 68.4834 15.3125 68.7827 15.8011C69.0819 16.2898 69.2315 16.8333 69.2315 17.4318C69.2315 17.8598 69.1539 18.2784 68.9986 18.6875C68.8471 19.0928 68.5819 19.5455 68.2031 20.0455C67.8281 20.5417 67.3073 21.1477 66.6406 21.8636L64.027 24.6591V24.75H69.4361V26H62.0952ZM75.5781 26.1591C74.7221 26.1591 73.9929 25.9261 73.3906 25.4602C72.7884 24.9905 72.3281 24.3106 72.0099 23.4205C71.6918 22.5265 71.5327 21.447 71.5327 20.1818C71.5327 18.9242 71.6918 17.8504 72.0099 16.9602C72.3319 16.0663 72.794 15.3845 73.3963 14.9148C74.0024 14.4413 74.7296 14.2045 75.5781 14.2045C76.4266 14.2045 77.152 14.4413 77.7543 14.9148C78.3603 15.3845 78.8224 16.0663 79.1406 16.9602C79.4626 17.8504 79.6236 18.9242 79.6236 20.1818C79.6236 21.447 79.4645 22.5265 79.1463 23.4205C78.8281 24.3106 78.3679 24.9905 77.7656 25.4602C77.1634 25.9261 76.4342 26.1591 75.5781 26.1591ZM75.5781 24.9091C76.4266 24.9091 77.0857 24.5 77.5554 23.6818C78.0251 22.8636 78.2599 21.697 78.2599 20.1818C78.2599 19.1742 78.152 18.3163 77.9361 17.608C77.724 16.8996 77.4171 16.3598 77.0156 15.9886C76.6179 15.6174 76.1387 15.4318 75.5781 15.4318C74.7372 15.4318 74.08 15.8466 73.6065 16.6761C73.133 17.5019 72.8963 18.6705 72.8963 20.1818C72.8963 21.1894 73.0024 22.0455 73.2145 22.75C73.4266 23.4545 73.7315 23.9905 74.1293 24.358C74.5308 24.7254 75.0137 24.9091 75.5781 24.9091ZM81.7827 26V24.9773L85.6236 20.7727C86.0743 20.2803 86.4455 19.8523 86.7372 19.4886C87.0289 19.1212 87.2448 18.7765 87.3849 18.4545C87.5289 18.1288 87.6009 17.7879 87.6009 17.4318C87.6009 17.0227 87.5024 16.6686 87.3054 16.3693C87.1122 16.0701 86.8471 15.839 86.5099 15.6761C86.1728 15.5133 85.794 15.4318 85.3736 15.4318C84.9266 15.4318 84.5365 15.5246 84.2031 15.7102C83.8736 15.892 83.6179 16.1477 83.4361 16.4773C83.258 16.8068 83.169 17.1932 83.169 17.6364H81.8281C81.8281 16.9545 81.9853 16.3561 82.2997 15.8409C82.6141 15.3258 83.0421 14.9242 83.5838 14.6364C84.1293 14.3485 84.741 14.2045 85.419 14.2045C86.1009 14.2045 86.705 14.3485 87.2315 14.6364C87.758 14.9242 88.1709 15.3125 88.4702 15.8011C88.7694 16.2898 88.919 16.8333 88.919 17.4318C88.919 17.8598 88.8414 18.2784 88.6861 18.6875C88.5346 19.0928 88.2694 19.5455 87.8906 20.0455C87.5156 20.5417 86.9948 21.1477 86.3281 21.8636L83.7145 24.6591V24.75H89.1236V26H81.7827ZM95.402 26.1591C94.652 26.1591 93.9834 26.0303 93.3963 25.7727C92.813 25.5152 92.349 25.1572 92.0043 24.6989C91.6634 24.2367 91.4777 23.7008 91.4474 23.0909H92.8793C92.9096 23.4659 93.0384 23.7898 93.2656 24.0625C93.4929 24.3314 93.7902 24.5398 94.1577 24.6875C94.5251 24.8352 94.9323 24.9091 95.3793 24.9091C95.8793 24.9091 96.3224 24.822 96.7088 24.6477C97.0952 24.4735 97.3982 24.2311 97.6179 23.9205C97.8376 23.6098 97.9474 23.25 97.9474 22.8409C97.9474 22.4129 97.8414 22.036 97.6293 21.7102C97.4171 21.3807 97.1065 21.1231 96.6974 20.9375C96.2884 20.7519 95.7884 20.6591 95.1974 20.6591H94.2656V19.4091H95.1974C95.6596 19.4091 96.0649 19.3258 96.4134 19.1591C96.7656 18.9924 97.0402 18.7576 97.2372 18.4545C97.438 18.1515 97.5384 17.7955 97.5384 17.3864C97.5384 16.9924 97.4512 16.6496 97.277 16.358C97.1027 16.0663 96.8565 15.839 96.5384 15.6761C96.224 15.5133 95.8527 15.4318 95.4247 15.4318C95.0232 15.4318 94.6444 15.5057 94.2884 15.6534C93.9361 15.7973 93.6482 16.0076 93.4247 16.2841C93.2012 16.5568 93.08 16.8864 93.0611 17.2727H91.6974C91.7202 16.6629 91.9039 16.1288 92.2486 15.6705C92.5933 15.2083 93.044 14.8485 93.6009 14.5909C94.1615 14.3333 94.777 14.2045 95.4474 14.2045C96.1671 14.2045 96.7846 14.3504 97.2997 14.642C97.8149 14.9299 98.2107 15.3106 98.4872 15.7841C98.7637 16.2576 98.902 16.7689 98.902 17.3182C98.902 17.9735 98.7296 18.5322 98.3849 18.9943C98.044 19.4564 97.58 19.7765 96.9929 19.9545V20.0455C97.7277 20.1667 98.3016 20.4792 98.7145 20.983C99.1274 21.483 99.3338 22.1023 99.3338 22.8409C99.3338 23.4735 99.1615 24.0417 98.8168 24.5455C98.4759 25.0455 98.0099 25.4394 97.419 25.7273C96.8281 26.0152 96.1558 26.1591 95.402 26.1591Z" fill="#1F1F1F"/>
<path d="M167.5 28.2746H152.5C152.062 28.2746 151.725 27.9246 151.725 27.4996V14.1621C151.725 13.7246 152.075 13.3871 152.5 13.3871H167.5C167.937 13.3871 168.275 13.7371 168.275 14.1621V27.4996C168.275 27.9371 167.925 28.2746 167.5 28.2746ZM153.275 26.7121H166.725V14.9496H153.275V26.7246V26.7121Z" fill="#757575"/>
<path d="M167.5 18.2746H152.5C152.062 18.2746 151.725 17.9246 151.725 17.4996C151.725 17.0746 152.075 16.7246 152.5 16.7246H167.5C167.937 16.7246 168.275 17.0746 168.275 17.4996C168.275 17.9246 167.925 18.2746 167.5 18.2746Z" fill="#757575"/>
<path d="M155.837 14.9496C155.4 14.9496 155.062 14.5996 155.062 14.1746V12.5121C155.062 12.0746 155.412 11.7371 155.837 11.7371C156.262 11.7371 156.612 12.0871 156.612 12.5121V14.1746C156.612 14.6121 156.262 14.9496 155.837 14.9496Z" fill="#757575"/>
<path d="M164.162 14.9496C163.725 14.9496 163.387 14.5996 163.387 14.1746V12.5121C163.387 12.0746 163.737 11.7371 164.162 11.7371C164.587 11.7371 164.937 12.0871 164.937 12.5121V14.1746C164.937 14.6121 164.587 14.9496 164.162 14.9496Z" fill="#757575"/>
<rect x="0.5" y="0.5" width="181" height="39" rx="3.5" stroke="#545454"/>
</svg>

<svg width="182" height="40" fill="none" xmlns="http://www.w3.org/2000/svg"><rect x=".5" y=".5" width="181" height="39" rx="3.5" fill="#fff"/><path d="M17.3 14.36V26h-1.41V15.84h-.07l-2.84 1.89V16.3l2.9-1.94h1.42Zm7.27 11.8c-.75 0-1.41-.13-2-.39a3.44 3.44 0 0 1-1.4-1.07c-.33-.46-.52-1-.55-1.6h1.43c.03.37.16.69.39.96.22.27.52.48.89.63.37.15.77.22 1.22.22.5 0 .94-.09 1.33-.26.39-.18.69-.42.91-.73.22-.31.33-.67.33-1.08 0-.43-.1-.8-.32-1.13a2.1 2.1 0 0 0-.93-.77 3.56 3.56 0 0 0-1.5-.28h-.93V19.4h.93c.46 0 .87-.08 1.22-.25a1.89 1.89 0 0 0 1.13-1.77 2.1 2.1 0 0 0-.27-1.03c-.18-.3-.42-.52-.74-.68a2.4 2.4 0 0 0-1.11-.25c-.4 0-.78.08-1.14.22-.35.15-.64.36-.86.63-.23.28-.35.6-.37 1h-1.36c.02-.62.2-1.15.55-1.61.35-.46.8-.82 1.35-1.08a4.37 4.37 0 0 1 3.7.05 3.08 3.08 0 0 1 1.6 2.68 2.62 2.62 0 0 1-1.9 2.64v.09c.73.12 1.3.43 1.72.93.4.5.62 1.12.62 1.86 0 .63-.18 1.2-.52 1.7s-.8.9-1.4 1.19c-.59.29-1.26.43-2.02.43Zm10.4-12.34-3.75 13.93h-1.23l3.75-13.93h1.23Zm5.36 12.34c-.86 0-1.59-.23-2.19-.7a4.37 4.37 0 0 1-1.38-2.04 9.7 9.7 0 0 1-.48-3.24c0-1.26.16-2.33.48-3.22a4.4 4.4 0 0 1 1.39-2.05c.6-.47 1.33-.7 2.18-.7.85 0 1.57.23 2.17.7a4.46 4.46 0 0 1 1.4 2.05c.31.89.47 1.96.47 3.22a9.7 9.7 0 0 1-.47 3.24 4.37 4.37 0 0 1-1.38 2.04c-.6.47-1.34.7-2.2.7Zm0-1.25c.85 0 1.5-.41 1.98-1.23.47-.82.7-1.98.7-3.5 0-1-.1-1.86-.32-2.57a3.53 3.53 0 0 0-.92-1.62c-.4-.37-.88-.56-1.44-.56-.84 0-1.5.42-1.97 1.25-.48.82-.71 2-.71 3.5a9 9 0 0 0 .31 2.57c.22.7.52 1.24.92 1.6.4.38.88.56 1.45.56Zm9.93 1.25c-.78 0-1.47-.14-2.07-.42a3.39 3.39 0 0 1-1.39-1.15 2.9 2.9 0 0 1-.5-1.68 3.1 3.1 0 0 1 1.1-2.42c.35-.28.73-.46 1.16-.54v-.06c-.56-.15-1-.46-1.33-.94a2.84 2.84 0 0 1-.5-1.65c0-.6.15-1.12.46-1.59.3-.47.72-.83 1.25-1.1a4 4 0 0 1 1.82-.4c.67 0 1.28.13 1.8.4.54.27.95.63 1.26 1.1.3.47.46 1 .46 1.59a2.9 2.9 0 0 1-.5 1.65c-.33.48-.77.8-1.32.94v.06c.42.08.8.26 1.14.54a3.16 3.16 0 0 1 1.11 2.41 3 3 0 0 1-.5 1.7c-.34.48-.8.86-1.4 1.14a4.8 4.8 0 0 1-2.05.42Zm0-1.25c.53 0 .98-.09 1.36-.26.39-.17.68-.4.89-.72a2.1 2.1 0 0 0-.02-2.26c-.23-.33-.53-.6-.92-.79-.38-.2-.82-.29-1.31-.29-.5 0-.94.1-1.33.3-.39.18-.7.45-.91.79-.22.33-.33.72-.33 1.16 0 .42.1.78.3 1.1.21.3.5.54.9.71.38.17.84.26 1.37.26Zm0-5.52c.42 0 .79-.09 1.1-.25a1.9 1.9 0 0 0 1.06-1.75c0-.4-.1-.74-.28-1.03a1.8 1.8 0 0 0-.76-.68c-.32-.17-.7-.25-1.12-.25-.44 0-.82.08-1.14.25-.33.16-.58.38-.76.68-.18.29-.26.63-.26 1.03s.09.75.27 1.05c.18.3.44.53.76.7.33.16.7.25 1.13.25Zm10.27-5.57-3.75 13.93h-1.23l3.75-13.93h1.23ZM62.1 26v-1.02l3.84-4.2c.45-.5.82-.93 1.11-1.3.3-.36.5-.7.65-1.03.14-.32.21-.66.21-1.02a1.89 1.89 0 0 0-1.09-1.75 2.58 2.58 0 0 0-1.13-.25c-.45 0-.84.1-1.17.28a1.9 1.9 0 0 0-.77.77 2.4 2.4 0 0 0-.27 1.16h-1.34a3.28 3.28 0 0 1 1.76-3 3.87 3.87 0 0 1 1.83-.44c.68 0 1.29.15 1.81.44a3.15 3.15 0 0 1 1.69 2.79c0 .43-.08.85-.23 1.26-.15.4-.42.86-.8 1.36-.37.5-.9 1.1-1.56 1.81l-2.61 2.8v.09h5.4V26H62.1Zm13.48.16c-.86 0-1.59-.23-2.19-.7a4.37 4.37 0 0 1-1.38-2.04 9.7 9.7 0 0 1-.48-3.24c0-1.26.16-2.33.48-3.22a4.4 4.4 0 0 1 1.39-2.05c.6-.47 1.33-.7 2.18-.7.85 0 1.57.23 2.17.7a4.46 4.46 0 0 1 1.4 2.05c.31.89.47 1.96.47 3.22a9.7 9.7 0 0 1-.47 3.24 4.37 4.37 0 0 1-1.38 2.04c-.6.47-1.34.7-2.2.7Zm0-1.25c.85 0 1.5-.41 1.98-1.23.47-.82.7-1.98.7-3.5 0-1-.1-1.86-.32-2.57a3.53 3.53 0 0 0-.92-1.62c-.4-.37-.88-.56-1.44-.56-.84 0-1.5.42-1.97 1.25-.48.82-.71 2-.71 3.5a9 9 0 0 0 .31 2.57c.22.7.52 1.24.92 1.6.4.38.88.56 1.45.56Zm6.2 1.09v-1.02l3.84-4.2c.45-.5.83-.93 1.12-1.3.29-.36.5-.7.64-1.03.15-.32.22-.66.22-1.02a1.89 1.89 0 0 0-1.09-1.75 2.58 2.58 0 0 0-1.14-.25c-.44 0-.83.1-1.17.28-.33.18-.58.44-.76.77a2.4 2.4 0 0 0-.27 1.16h-1.34a3.28 3.28 0 0 1 1.76-3 3.87 3.87 0 0 1 1.83-.44c.68 0 1.28.15 1.81.44a3.15 3.15 0 0 1 1.69 2.79c0 .43-.08.85-.23 1.26-.16.4-.42.86-.8 1.36-.37.5-.9 1.1-1.56 1.81l-2.62 2.8v.09h5.41V26h-7.34Zm13.62.16c-.75 0-1.42-.13-2-.39A3.44 3.44 0 0 1 92 24.7c-.34-.46-.52-1-.55-1.6h1.43c.03.37.16.69.39.96.22.27.52.48.89.63.37.15.77.22 1.22.22.5 0 .94-.09 1.33-.26.39-.18.69-.42.9-.73.23-.31.34-.67.34-1.08 0-.43-.1-.8-.32-1.13a2.1 2.1 0 0 0-.93-.77 3.56 3.56 0 0 0-1.5-.28h-.93V19.4h.93c.46 0 .86-.08 1.21-.25a1.89 1.89 0 0 0 1.13-1.77 1.79 1.79 0 0 0-1-1.71 2.4 2.4 0 0 0-1.12-.25c-.4 0-.78.08-1.13.22-.35.15-.64.36-.87.63-.22.28-.34.6-.36 1H91.7c.02-.62.2-1.15.55-1.61.34-.46.8-.82 1.35-1.08a4.37 4.37 0 0 1 3.7.05 3.08 3.08 0 0 1 1.6 2.68 2.62 2.62 0 0 1-1.9 2.64v.09c.73.12 1.3.43 1.71.93.42.5.62 1.12.62 1.86 0 .63-.17 1.2-.51 1.7-.34.5-.81.9-1.4 1.19-.6.29-1.26.43-2.02.43Z" fill="#1F1F1F"/><path d="M167.5 28.27h-15a.77.77 0 0 1-.78-.77V14.16c0-.44.35-.77.78-.77h15c.44 0 .78.35.78.77V27.5c0 .44-.35.77-.78.77Zm-14.22-1.56h13.44V14.95h-13.44v11.77Z" fill="#757575"/><path d="M167.5 18.27h-15a.77.77 0 0 1-.78-.77c0-.43.35-.78.78-.78h15a.78.78 0 0 1 0 1.55Zm-11.66-3.32a.77.77 0 0 1-.78-.78v-1.66a.78.78 0 0 1 1.55 0v1.66c0 .44-.35.78-.77.78Zm8.32 0a.77.77 0 0 1-.77-.78v-1.66c0-.44.35-.77.77-.77.43 0 .78.35.78.77v1.66c0 .44-.35.78-.78.78Z" fill="#757575"/><rect x=".5" y=".5" width="181" height="39" rx="3.5" stroke="#545454"/></svg>
